; generated by Slic3r 1.1.7 on 2015-02-22 at 14:40:14

; perimeters extrusion width = 0.50mm
; infill extrusion width = 0.50mm
; solid infill extrusion width = 0.50mm
; top infill extrusion width = 0.50mm

G21 ; set units to millimeters
M107
M190 S50 ; wait for bed temperature to be reached
M104 S195 ; set temperature
G28 ; home all axes
G1 Z5 F5000 ; lift nozzle

M109 S195 ; wait for temperature to be reached
G90 ; use absolute coordinates
G92 E0
M82 ; use absolute distances for extrusion
G1 F1200.000 E-3.50000
G92 E0
G1 Z0.200 F3600.000
G1 X75.011 Y85.789 F3600.000
G1 E3.50000 F1200.000
G1 X76.760 Y84.332 E3.55005 F540.000
G1 X80.000 Y83.471 E3.62375
G1 X100.000 Y83.471 E4.06341
G1 X102.242 Y83.868 E4.11346
G1 X104.211 Y85.011 E4.16351 F540.000
G1 X105.668 Y86.760 E4.21356
G1 X106.529 Y90.000 E4.28725
G1 X106.529 Y110.000 E4.72692
G1 X106.132 Y112.242 E4.77697
G1 X104.989 Y114.211 E4.82702
G1 X103.240 Y115.668 E4.87706
G1 X100.000 Y116.529 E4.95076
G1 X80.000 Y116.529 E5.39043
G1 X77.758 Y116.132 E5.44047
G1 X75.789 Y114.989 E5.49052
G1 X74.332 Y113.240 E5.54057
G1 X73.471 Y110.000 E5.61427
G1 X73.471 Y90.000 E6.05393
G1 X73.868 Y87.758 E6.10398
G1 X74.973 Y85.854 E6.15238
G1 X75.210 Y85.995 F3600.000
G1 X75.273 Y85.890 E6.15507 F540.000
G1 X77.012 Y84.494 E6.20409
G1 X80.000 Y83.736 E6.27187
G1 X100.000 Y83.736 E6.71153
G1 X102.194 Y84.132 E6.76055
G1 X104.110 Y85.273 E6.80956 F540.000
G1 X105.506 Y87.012 E6.85858
G1 X106.264 Y90.000 E6.92636
G1 X106.264 Y110.000 E7.36603
G1 X105.868 Y112.194 E7.41504
G1 X104.727 Y114.110 E7.46406
G1 X102.988 Y115.506 E7.51307
G1 X100.000 Y116.264 E7.58085
G1 X80.000 Y116.264 E8.02052
G1 X77.806 Y115.868 E8.06954
G1 X75.890 Y114.727 E8.11855
G1 X74.494 Y112.988 E8.16757
G1 X73.736 Y110.000 E8.23535
G1 X73.736 Y90.000 E8.67501
G1 X74.132 Y87.806 E8.72403
G1 X75.172 Y86.059 E8.76871
G1 X83.569 Y85.831 F2880.000 E5.44371
G1 F1200.000 E5.26871
G92 E0
G1 X86.140 Y90.629 F3600.000
G1 E3.50000 F1200.000
G1 X99.371 Y90.629 E3.79087 F540.000
G1 X99.371 Y109.371 E4.20290
G1 X80.629 Y109.371 E4.61492 F540.000
G1 X80.629 Y90.629 E5.02694
G1 X86.065 Y90.629 E5.14644
G1 X86.065 Y90.364 F3600.000
G1 X99.636 Y90.364 E5.44477 F540.000
G1 X99.636 Y109.636 E5.86842
G1 X80.364 Y109.636 E6.29207
G1 X80.364 Y90.364 E6.71571
G1 X85.990 Y90.364 E6.83938 F540.000
G1 X85.990 Y90.100 F3600.000
G1 X99.900 Y90.100 E7.14517 F378.000
G1 X99.900 Y109.900 E7.58044
G1 X80.100 Y109.900 E8.01571 F378.000
G1 X80.100 Y90.100 E8.45098
G1 X85.915 Y90.100 E8.57881
G1 X99.417 Y109.771 F3600.000
G1 X80.840 Y109.200 F3600.000
G1 X80.800 Y109.160 E8.58005 F540.000
G1 X80.800 Y108.785 E8.58829
G1 X81.215 Y109.200 E8.60118
G1 X81.590 Y109.200 E8.60942
G1 X80.800 Y108.410 E8.63396
G1 X80.800 Y108.036 E8.64219
G1 X81.964 Y109.200 E8.67838
G1 X82.339 Y109.200 E8.68662
G1 X80.800 Y107.661 E8.73445
G1 X80.800 Y107.286 E8.74269
G1 X82.714 Y109.200 E8.80218
G1 X83.088 Y109.200 E8.81041
G1 X80.800 Y106.912 E8.88155
G1 X80.800 Y106.537 E8.88978
G1 X83.463 Y109.200 E8.97257
G1 X83.838 Y109.200 E8.98080
G1 X80.800 Y106.162 E9.07523
G1 X80.800 Y105.787 E9.08347
G1 X84.213 Y109.200 E9.18955
G1 X84.587 Y109.200 E9.19779
G1 X80.800 Y105.413 E9.31551
G1 X80.800 Y105.038 E9.32375
G1 X84.962 Y109.200 E9.45313
G1 X85.337 Y109.200 E9.46136
G1 X80.800 Y104.663 E9.60239
G1 X80.800 Y104.289 E9.61062
G1 X85.711 Y109.200 E9.76330
G1 X86.086 Y109.200 E9.77153
G1 X80.800 Y103.914 E9.93585
G1 X80.800 Y103.539 E9.94409
G1 X86.461 Y109.200 E10.12006
G1 X86.835 Y109.200 E10.12830
G1 X80.800 Y103.165 E10.31591
G1 X80.800 Y102.790 E10.32415
G1 X87.210 Y109.200 E10.52342
G1 X87.585 Y109.200 E10.53165
G1 X80.800 Y102.415 E10.74257
G1 X80.800 Y102.041 E10.75080
G1 X87.959 Y109.200 E10.97337
G1 X88.334 Y109.200 E10.98160
G1 X80.800 Y101.666 E11.21581
G1 X80.800 Y101.291 E11.22405
G1 X88.709 Y109.200 E11.46991
G1 X89.083 Y109.200 E11.47815
G1 X80.800 Y100.917 E11.73565
G1 X80.800 Y100.542 E11.74389
G1 X89.458 Y109.200 E12.01305
G1 X89.833 Y109.200 E12.02128
G1 X80.800 Y100.167 E12.30209
G1 X80.800 Y99.793 E12.31033
G1 X90.207 Y109.200 E12.60278
G1 X90.582 Y109.200 E12.61102
G1 X80.800 Y99.418 E12.91512
G1 X80.800 Y99.043 E12.92335
G1 X90.957 Y109.200 E13.23910
G1 X91.331 Y109.200 E13.24734
G1 X80.800 Y98.669 E13.57474
G1 X80.800 Y98.294 E13.58297
G1 X91.706 Y109.200 E13.92202
G1 X92.081 Y109.200 E13.93026
G1 X80.800 Y97.919 E14.28095
G1 X80.800 Y97.545 E14.28919
G1 X92.455 Y109.200 E14.65153
G1 X92.830 Y109.200 E14.65977
G1 X80.800 Y97.170 E15.03376
G1 X80.800 Y96.795 E15.04200
G1 X93.205 Y109.200 E15.42764
G1 X93.579 Y109.200 E15.43587
G1 X80.800 Y96.421 E15.83316
G1 X80.800 Y96.046 E15.84140
G1 X93.954 Y109.200 E16.25034
G1 X94.329 Y109.200 E16.25857
G1 X80.800 Y95.671 E16.67916
G1 X80.800 Y95.297 E16.68739
G1 X94.703 Y109.200 E17.11963
G1 X95.078 Y109.200 E17.12786
G1 X80.800 Y94.922 E17.57175
G1 X80.800 Y94.547 E17.57998
G1 X95.453 Y109.200 E18.03551
G1 X95.827 Y109.200 E18.04375
G1 X80.800 Y94.173 E18.51093
G1 X80.800 Y93.798 E18.51917
G1 X96.202 Y109.200 E18.99799
G1 X96.577 Y109.200 E19.00623
G1 X80.800 Y93.423 E19.49670
G1 X80.800 Y93.048 E19.50494
G1 X96.952 Y109.200 E20.00707
G1 X97.326 Y109.200 E20.01530
G1 X80.800 Y92.674 E20.52907
G1 X80.800 Y92.299 E20.53731
G1 X97.701 Y109.200 E21.06273
G1 X98.076 Y109.200 E21.07097
G1 X80.800 Y91.924 E21.60804
G1 X80.800 Y91.550 E21.61627
G1 X98.450 Y109.200 E22.16499
G1 X98.825 Y109.200 E22.17323
G1 X80.800 Y91.175 E22.73359
G1 X80.820 Y90.820 E22.74140
G1 X99.180 Y109.180 E23.31217
G1 X99.200 Y108.825 E23.31998
G1 X81.175 Y90.800 E23.88035
G1 X81.550 Y90.800 E23.88859
G1 X99.200 Y108.450 E24.43730
G1 X99.200 Y108.076 E24.44554
G1 X81.924 Y90.800 E24.98261
G1 X82.299 Y90.800 E24.99084
G1 X99.200 Y107.701 E25.51627
G1 X99.200 Y107.326 E25.52450
G1 X82.674 Y90.800 E26.03827
G1 X83.048 Y90.800 E26.04651
G1 X99.200 Y106.952 E26.54863
G1 X99.200 Y106.577 E26.55687
G1 X83.423 Y90.800 E27.04735
G1 X83.798 Y90.800 E27.05558
G1 X99.200 Y106.202 E27.53441
G1 X99.200 Y105.827 E27.54265
G1 X84.173 Y90.800 E28.00983
G1 X84.547 Y90.800 E28.01806
G1 X99.200 Y105.453 E28.47359
G1 X99.200 Y105.078 E28.48183
G1 X84.922 Y90.800 E28.92571
G1 X85.297 Y90.800 E28.93395
G1 X99.200 Y104.703 E29.36618
G1 X99.200 Y104.329 E29.37442
G1 X85.671 Y90.800 E29.79500
G1 X86.046 Y90.800 E29.80324
G1 X99.200 Y103.954 E30.21218
G1 X99.200 Y103.579 E30.22041
G1 X86.421 Y90.800 E30.61770
G1 X86.795 Y90.800 E30.62594
G1 X99.200 Y103.205 E31.01158
G1 X99.200 Y102.830 E31.01982
G1 X87.170 Y90.800 E31.39381
G1 X87.545 Y90.800 E31.40204
G1 X99.200 Y102.455 E31.76439
G1 X99.200 Y102.081 E31.77262
G1 X87.919 Y90.800 E32.12332
G1 X88.294 Y90.800 E32.13156
G1 X99.200 Y101.706 E32.47060
G1 X99.200 Y101.331 E32.47884
G1 X88.669 Y90.800 E32.80624
G1 X89.043 Y90.800 E32.81447
G1 X99.200 Y100.957 E33.13022
G1 X99.200 Y100.582 E33.13846
G1 X89.418 Y90.800 E33.44256
G1 X89.793 Y90.800 E33.45080
G1 X99.200 Y100.207 E33.74325
G1 X99.200 Y99.833 E33.75149
G1 X90.167 Y90.800 E34.03229
G1 X90.542 Y90.800 E34.04053
G1 X99.200 Y99.458 E34.30969
G1 X99.200 Y99.083 E34.31792
G1 X90.917 Y90.800 E34.57543
G1 X91.291 Y90.800 E34.58367
G1 X99.200 Y98.709 E34.82953
G1 X99.200 Y98.334 E34.83776
G1 X91.666 Y90.800 E35.07197
G1 X92.041 Y90.800 E35.08021
G1 X99.200 Y97.959 E35.30277
G1 X99.200 Y97.585 E35.31101
G1 X92.415 Y90.800 E35.52192
G1 X92.790 Y90.800 E35.53016
G1 X99.200 Y97.210 E35.72943
G1 X99.200 Y96.835 E35.73766
G1 X93.165 Y90.800 E35.92528
G1 X93.539 Y90.800 E35.93352
G1 X99.200 Y96.461 E36.10949
G1 X99.200 Y96.086 E36.11772
G1 X93.914 Y90.800 E36.28204
G1 X94.289 Y90.800 E36.29028
G1 X99.200 Y95.711 E36.44295
G1 X99.200 Y95.337 E36.45119
G1 X94.663 Y90.800 E36.59221
G1 X95.038 Y90.800 E36.60045
G1 X99.200 Y94.962 E36.72983
G1 X99.200 Y94.587 E36.73806
G1 X95.413 Y90.800 E36.85579
G1 X95.787 Y90.800 E36.86403
G1 X99.200 Y94.213 E36.97011
G1 X99.200 Y93.838 E36.97834
G1 X96.162 Y90.800 E37.07277
G1 X96.537 Y90.800 E37.08101
G1 X99.200 Y93.463 E37.16379
G1 X99.200 Y93.088 E37.17203
G1 X96.912 Y90.800 E37.24316
G1 X97.286 Y90.800 E37.25140
G1 X99.200 Y92.714 E37.31089
G1 X99.200 Y92.339 E37.31912
G1 X97.661 Y90.800 E37.36696
G1 X98.036 Y90.800 E37.37520
G1 X99.200 Y91.964 E37.41138
G1 X99.200 Y91.590 E37.41962
G1 X98.410 Y90.800 E37.44416
G1 X98.785 Y90.800 E37.45240
G1 X99.200 Y91.215 E37.46529
G1 X99.200 Y90.840 E37.47353
G1 X99.160 Y90.800 E37.47477
M106 S255
M140 S45 ; set bed temperature
G1 X99.200 Y90.840 F2715.128 E37.45238
G1 X99.200 Y91.215 F2715.128 E37.30407
G1 X98.785 Y90.800 F2715.128 E37.07193
G1 X98.410 Y90.800 F2715.128 E36.92362
G1 X99.200 Y91.590 F2715.128 E36.48175
G1 X99.200 Y91.964 F2715.128 E36.33344
G1 X98.036 Y90.800 F2715.128 E35.68182
G1 X97.661 Y90.800 F2715.128 E35.53351
G1 X99.200 Y92.339 F2715.128 E34.67216
G1 X99.200 Y92.714 F2715.128 E34.52385
G1 X98.531 Y92.046 F2715.128 E34.14977
G1 F1200.000 E33.97477
G92 E0
G1 Z0.400 F3600.000
G1 X84.652 Y108.750 F3600.000
G1 E3.50000 F1200.000
G1 X81.250 Y108.750 E3.64144 F1696.955
G1 X81.250 Y91.250 E4.36901
G1 X98.750 Y91.250 E5.09657
G1 X98.750 Y108.750 E5.82414
G1 X84.727 Y108.750 E6.40714 F1696.955
G1 X84.727 Y109.250 F3600.000
G1 X80.750 Y109.250 E6.57249 F1696.955
G1 X80.750 Y90.750 E7.34163
G1 X99.250 Y90.750 E8.11077 F1696.955
G1 X99.250 Y109.250 E8.87991
G1 X84.802 Y109.250 E9.48059
G1 X84.802 Y109.750 F3600.000
G1 X80.250 Y109.750 E9.66984 F1187.868
G1 X80.250 Y90.250 E10.48056
G1 X99.750 Y90.250 E11.29127
G1 X99.750 Y109.750 E12.10199
G1 X84.877 Y109.750 E12.72033 F1187.868
G1 X99.750 Y109.250 F3600.000
G1 X98.408 Y108.368 F3600.000
G1 X98.368 Y108.408 E12.72269 F1696.955
G1 X97.654 Y108.408 E12.75236
G1 X98.408 Y107.654 E12.79669
G1 X98.408 Y106.940 E12.82636
G1 X96.940 Y108.408 E12.91266
G1 X96.226 Y108.408 E12.94233
G1 X98.408 Y106.226 E13.07060
G1 X98.408 Y105.512 E13.10027
G1 X95.512 Y108.408 E13.27051
G1 X94.798 Y108.408 E13.30019
G1 X98.408 Y104.798 E13.51239
G1 X98.408 Y104.085 E13.54207
G1 X94.085 Y108.408 E13.79624
G1 X93.371 Y108.408 E13.82592
G1 X98.408 Y103.371 E14.12207
G1 X98.408 Y102.657 E14.15175
G1 X92.657 Y108.408 E14.48986
G1 X91.943 Y108.408 E14.51954
G1 X98.408 Y101.943 E14.89963
G1 X98.408 Y101.229 E14.92930
G1 X91.229 Y108.408 E15.35136
G1 X90.515 Y108.408 E15.38104
G1 X98.408 Y100.515 E15.84507
G1 X98.408 Y99.802 E15.87474
G1 X89.802 Y108.408 E16.38074
G1 X89.088 Y108.408 E16.41042
G1 X98.408 Y99.088 E16.95839
G1 X98.408 Y98.374 E16.98807
G1 X88.374 Y108.408 E17.57801
G1 X87.660 Y108.408 E17.60769
G1 X98.408 Y97.660 E18.23960
G1 X98.408 Y96.946 E18.26927
G1 X86.946 Y108.408 E18.94315
G1 X86.232 Y108.408 E18.97283
G1 X98.408 Y96.232 E19.68868
G1 X98.408 Y95.519 E19.71836
G1 X85.519 Y108.408 E20.47618
G1 X84.805 Y108.408 E20.50586
G1 X98.408 Y94.805 E21.30565
G1 X98.408 Y94.091 E21.33533
G1 X84.091 Y108.408 E22.17709
G1 X83.377 Y108.408 E22.20677
G1 X98.408 Y93.377 E23.09051
G1 X98.408 Y92.663 E23.12018
G1 X82.663 Y108.408 E24.04589
G1 X81.949 Y108.408 E24.07557
G1 X98.408 Y91.949 E25.04324
G1 X98.051 Y91.592 E25.06423
G1 X81.592 Y108.051 E26.03190
G1 X81.592 Y107.337 E26.06158
G1 X97.337 Y91.592 E26.98728
G1 X96.623 Y91.592 E27.01696
G1 X81.592 Y106.623 E27.90069
G1 X81.592 Y105.909 E27.93037
G1 X95.909 Y91.592 E28.77213
G1 X95.195 Y91.592 E28.80181
G1 X81.592 Y105.195 E29.60160
G1 X81.592 Y104.481 E29.63128
G1 X94.481 Y91.592 E30.38910
G1 X93.768 Y91.592 E30.41878
G1 X81.592 Y103.768 E31.13463
G1 X81.592 Y103.054 E31.16431
G1 X93.054 Y91.592 E31.83819
G1 X92.340 Y91.592 E31.86787
G1 X81.592 Y102.340 E32.49978
G1 X81.592 Y101.626 E32.52946
G1 X91.626 Y91.592 E33.11940
G1 X90.912 Y91.592 E33.14907
G1 X81.592 Y100.912 E33.69704
G1 X81.592 Y100.198 E33.72672
G1 X90.198 Y91.592 E34.23272
G1 X89.485 Y91.592 E34.26240
G1 X81.592 Y99.485 E34.72642
G1 X81.592 Y98.771 E34.75610
G1 X88.771 Y91.592 E35.17816
G1 X88.057 Y91.592 E35.20784
G1 X81.592 Y98.057 E35.58792
G1 X81.592 Y97.343 E35.61760
G1 X87.343 Y91.592 E35.95572
G1 X86.629 Y91.592 E35.98539
G1 X81.592 Y96.629 E36.28154
G1 X81.592 Y95.915 E36.31122
G1 X85.915 Y91.592 E36.56539
G1 X85.202 Y91.592 E36.59507
G1 X81.592 Y95.202 E36.80728
G1 X81.592 Y94.488 E36.83695
G1 X84.488 Y91.592 E37.00719
G1 X83.774 Y91.592 E37.03686
G1 X81.592 Y93.774 E37.16513
G1 X81.592 Y93.060 E37.19481
G1 X83.060 Y91.592 E37.28110
G1 X82.346 Y91.592 E37.31078
G1 X81.592 Y92.346 E37.35510
G1 X81.592 Y91.632 E37.38478
G1 X81.632 Y91.592 E37.38713
G1 X81.592 Y91.632 F2715.128 E37.36474
G1 X81.592 Y92.346 F2715.128 E37.08218
G1 X82.346 Y91.592 F2715.128 E36.66019
G1 X83.060 Y91.592 F2715.128 E36.37763
G1 X81.592 Y93.060 F2715.128 E35.55604
G1 X81.592 Y93.774 F2715.128 E35.27349
G1 X83.756 Y91.610 F2715.128 E34.06213
G1 F1200.000 E33.88713
G92 E0
G1 Z0.600 F3600.000
G1 X81.250 Y96.583 F3600.000
G1 E3.50000 F1200.000
G1 X81.250 Y91.250 E3.72170 F1696.955
G1 X98.750 Y91.250 E4.44927
G1 X98.750 Y108.750 E5.17683
G1 X81.250 Y108.750 E5.90440 F1696.955
G1 X81.250 Y96.658 E6.40714
G1 X80.750 Y96.658 F3600.000
G1 X80.750 Y90.750 E6.65275 F1696.955
G1 X99.250 Y90.750 E7.42189 F1696.955
G1 X99.250 Y109.250 E8.19103
G1 X80.750 Y109.250 E8.96017
G1 X80.750 Y96.733 E9.48059
G1 X80.250 Y96.733 F3600.000
G1 X80.250 Y90.250 E9.75010 F1187.868
G1 X99.750 Y90.250 E10.56082
G1 X99.750 Y109.750 E11.37153
G1 X80.250 Y109.750 E12.18225 F1187.868
G1 X80.250 Y96.808 E12.72033
G1 X100.000 Y109.317 F3600.000
G1 X98.368 Y91.592 F3600.000
G1 X98.408 Y91.632 E12.72269 F1696.955
G1 X98.408 Y92.346 E12.75236
G1 X97.654 Y91.592 E12.79669
G1 X96.940 Y91.592 E12.82636
G1 X98.408 Y93.060 E12.91266
G1 X98.408 Y93.774 E12.94233
G1 X96.226 Y91.592 E13.07060
G1 X95.512 Y91.592 E13.10027
G1 X98.408 Y94.488 E13.27051
G1 X98.408 Y95.202 E13.30019
G1 X94.798 Y91.592 E13.51239
G1 X94.085 Y91.592 E13.54207
G1 X98.408 Y95.915 E13.79624
G1 X98.408 Y96.629 E13.82592
G1 X93.371 Y91.592 E14.12207
G1 X92.657 Y91.592 E14.15175
G1 X98.408 Y97.343 E14.48986
G1 X98.408 Y98.057 E14.51954
G1 X91.943 Y91.592 E14.89963
G1 X91.229 Y91.592 E14.92930
G1 X98.408 Y98.771 E15.35136
G1 X98.408 Y99.485 E15.38104
G1 X90.515 Y91.592 E15.84507
G1 X89.802 Y91.592 E15.87474
G1 X98.408 Y100.198 E16.38074
G1 X98.408 Y100.912 E16.41042
G1 X89.088 Y91.592 E16.95839
G1 X88.374 Y91.592 E16.98807
G1 X98.408 Y101.626 E17.57801
G1 X98.408 Y102.340 E17.60768
G1 X87.660 Y91.592 E18.23960
G1 X86.946 Y91.592 E18.26927
G1 X98.408 Y103.054 E18.94315
G1 X98.408 Y103.768 E18.97283
G1 X86.232 Y91.592 E19.68868
G1 X85.519 Y91.592 E19.71836
G1 X98.408 Y104.481 E20.47618
G1 X98.408 Y105.195 E20.50586
G1 X84.805 Y91.592 E21.30565
G1 X84.091 Y91.592 E21.33533
G1 X98.408 Y105.909 E22.17709
G1 X98.408 Y106.623 E22.20677
G1 X83.377 Y91.592 E23.09050
G1 X82.663 Y91.592 E23.12018
G1 X98.408 Y107.337 E24.04589
G1 X98.408 Y108.051 E24.07556
G1 X81.949 Y91.592 E25.04324
G1 X81.592 Y91.949 E25.06422
G1 X98.051 Y108.408 E26.03190
G1 X97.337 Y108.408 E26.06158
G1 X81.592 Y92.663 E26.98728
G1 X81.592 Y93.377 E27.01696
G1 X96.623 Y108.408 E27.90069
G1 X95.909 Y108.408 E27.93037
G1 X81.592 Y94.091 E28.77213
G1 X81.592 Y94.805 E28.80181
G1 X95.195 Y108.408 E29.60160
G1 X94.481 Y108.408 E29.63128
G1 X81.592 Y95.519 E30.38910
G1 X81.592 Y96.232 E30.41878
G1 X93.768 Y108.408 E31.13463
G1 X93.054 Y108.408 E31.16431
G1 X81.592 Y96.946 E31.83819
G1 X81.592 Y97.660 E31.86787
G1 X92.340 Y108.408 E32.49978
G1 X91.626 Y108.408 E32.52945
G1 X81.592 Y98.374 E33.11939
G1 X81.592 Y99.088 E33.14907
G1 X90.912 Y108.408 E33.69704
G1 X90.198 Y108.408 E33.72672
G1 X81.592 Y99.802 E34.23272
G1 X81.592 Y100.515 E34.26239
G1 X89.485 Y108.408 E34.72642
G1 X88.771 Y108.408 E34.75610
G1 X81.592 Y101.229 E35.17816
G1 X81.592 Y101.943 E35.20784
G1 X88.057 Y108.408 E35.58792
G1 X87.343 Y108.408 E35.61760
G1 X81.592 Y102.657 E35.95572
G1 X81.592 Y103.371 E35.98539
G1 X86.629 Y108.408 E36.28154
G1 X85.915 Y108.408 E36.31122
G1 X81.592 Y104.085 E36.56539
G1 X81.592 Y104.798 E36.59507
G1 X85.202 Y108.408 E36.80727
G1 X84.488 Y108.408 E36.83695
G1 X81.592 Y105.512 E37.00719
G1 X81.592 Y106.226 E37.03686
G1 X83.774 Y108.408 E37.16513
G1 X83.060 Y108.408 E37.19480
