; generated by Slic3r 1.1.7 on 2015-02-22 at 14:40:14

; perimeters extrusion width = 0.50mm
; infill extrusion width = 0.50mm
; solid infill extrusion width = 0.50mm
; top infill extrusion width = 0.50mm

G21 ; set units to millimeters
M107
M190 S50 ; wait for bed temperature to be reached
M104 S195 ; set temperature
G28 ; home all axes
G1 Z5 F5000 ; lift nozzle

M109 S195 ; wait for temperature to be reached
G90 ; use absolute coordinates
G92 E0
M82 ; use absolute distances for extrusion
G1 F1200.000 E-3.50000
G92 E0
G1 Z0.200 F3600.000
G1 X75.011 Y85.789 F3600.000
G1 E3.50052 F1200.000
G1 X76.760 Y84.332 E3.55072 F540.000
G1 X80.000 Y83.471 E3.62369
G1 X100.000 Y83.471 E4.06300
G1 X102.242 Y83.868 E4.11345
G1 X104.211 Y85.011 E4.16365 F540.000
G1 X105.668 Y86.760 E4.21378
G1 X106.529 Y90.000 E4.28773
G1 X106.529 Y110.000 E4.72670
G1 X106.132 Y112.242 E4.77669
G1 X104.989 Y114.211 E4.82783
G1 X103.240 Y115.668 E4.87784
G1 X100.000 Y116.529 E4.95079
G1 X80.000 Y116.529 E5.39000
G1 X77.758 Y116.132 E5.44079
G1 X75.789 Y114.989 E5.49070
G1 X74.332 Y113.240 E5.54000
G1 X73.471 Y110.000 E5.61484
G1 X73.471 Y90.000 E6.05372
G1 X73.868 Y87.758 E6.10369
G1 X74.973 Y85.854 E6.15200
G1 X75.210 Y85.995 F3600.000
G1 X75.273 Y85.890 E6.15533 F540.000
G1 X77.012 Y84.494 E6.20483
G1 X80.000 Y83.736 E6.27183
G1 X100.000 Y83.736 E6.71169
G1 X102.194 Y84.132 E6.76077
G1 X104.110 Y85.273 E6.80966 F540.000
G1 X105.506 Y87.012 E6.85876
G1 X106.264 Y90.000 E6.92689
G1 X106.264 Y110.000 E7.36600
G1 X105.868 Y112.194 E7.41537
G1 X104.727 Y114.110 E7.46488
G1 X102.988 Y115.506 E7.51384
G1 X100.000 Y116.264 E7.58082
G1 X80.000 Y116.264 E8.02069
G1 X77.806 Y115.868 E8.06977
G1 X75.890 Y114.727 E8.11873
G1 X74.494 Y112.988 E8.16783
G1 X73.736 Y110.000 E8.23584
G1 X73.736 Y90.000 E8.67500
G1 X74.132 Y87.806 E8.72451
G1 X75.172 Y86.059 E8.76879
G1 X83.569 Y85.831 F2880.000 E5.44367
G1 F1200.000 E5.26873
G92 E0
G1 X86.140 Y90.629 F3600.000
G1 E3.50069 F1200.000
G1 X99.371 Y90.629 E3.79084 F540.000
G1 X99.371 Y109.371 E4.20289
G1 X80.629 Y109.371 E4.61400 F540.000
G1 X80.629 Y90.629 E5.02613
G1 X86.065 Y90.629 E5.14600
G1 X86.065 Y90.364 F3600.000
G1 X99.636 Y90.364 E5.44448 F540.000
G1 X99.636 Y109.636 E5.86865
G1 X80.364 Y109.636 E6.29282
G1 X80.364 Y90.364 E6.71584
G1 X85.990 Y90.364 E6.83900 F540.000
G1 X85.990 Y90.100 F3600.000
G1 X99.900 Y90.100 E7.14517 F378.000
G1 X99.900 Y109.900 E7.58099
G1 X80.100 Y109.900 E8.01533 F378.000
G1 X80.100 Y90.100 E8.45000
G1 X85.915 Y90.100 E8.57883
G1 X99.417 Y109.771 F3600.000
G1 X80.840 Y109.200 F3600.000
G1 X80.800 Y109.160 E8.58080 F540.000
G1 X80.800 Y108.785 E8.58869
G1 X81.215 Y109.200 E8.60167
G1 X81.590 Y109.200 E8.60984
G1 X80.800 Y108.410 E8.63382
G1 X80.800 Y108.036 E8.64269
G1 X81.964 Y109.200 E8.67800
G1 X82.339 Y109.200 E8.68673
G1 X80.800 Y107.661 E8.73483
G1 X80.800 Y107.286 E8.74200
G1 X82.714 Y109.200 E8.80272
G1 X83.088 Y109.200 E8.81065
G1 X80.800 Y106.912 E8.88185
G1 X80.800 Y106.537 E8.88978
G1 X83.463 Y109.200 E8.97284
G1 X83.838 Y109.200 E8.98073
G1 X80.800 Y106.162 E9.07578
G1 X80.800 Y105.787 E9.08371
G1 X84.213 Y109.200 E9.18900
G1 X84.587 Y109.200 E9.19784
G1 X80.800 Y105.413 E9.31572
G1 X80.800 Y105.038 E9.32369
G1 X84.962 Y109.200 E9.45300
G1 X85.337 Y109.200 E9.46168
G1 X80.800 Y104.663 E9.60273
G1 X80.800 Y104.289 E9.61071
G1 X85.711 Y109.200 E9.76373
G1 X86.086 Y109.200 E9.77184
G1 X80.800 Y103.914 E9.93565
G1 X80.800 Y103.539 E9.94476
G1 X86.461 Y109.200 E10.12000
G1 X86.835 Y109.200 E10.12887
G1 X80.800 Y103.165 E10.31579
G1 X80.800 Y102.790 E10.32482
G1 X87.210 Y109.200 E10.52376
G1 X87.585 Y109.200 E10.53168
G1 X80.800 Y102.415 E10.74212
G1 X80.800 Y102.041 E10.75000
G1 X87.959 Y109.200 E10.97384
G1 X88.334 Y109.200 E10.98172
G1 X80.800 Y101.666 E11.21569
G1 X80.800 Y101.291 E11.22400
G1 X88.709 Y109.200 E11.46983
G1 X89.083 Y109.200 E11.47880
G1 X80.800 Y100.917 E11.73569
G1 X80.800 Y100.542 E11.74367
G1 X89.458 Y109.200 E12.01384
G1 X89.833 Y109.200 E12.02182
G1 X80.800 Y100.167 E12.30269
G1 X80.800 Y99.793 E12.31000
G1 X90.207 Y109.200 E12.60279
G1 X90.582 Y109.200 E12.61170
G1 X80.800 Y99.418 E12.91500
G1 X80.800 Y99.043 E12.92365
G1 X90.957 Y109.200 E13.23983
G1 X91.331 Y109.200 E13.24783
G1 X80.800 Y98.669 E13.57469
G1 X80.800 Y98.294 E13.58277
G1 X91.706 Y109.200 E13.92266
G1 X92.081 Y109.200 E13.93076
G1 X80.800 Y97.919 E14.28089
G1 X80.800 Y97.545 E14.28900
G1 X92.455 Y109.200 E14.65176
G1 X92.830 Y109.200 E14.65965
G1 X80.800 Y97.170 E15.03378
G1 X80.800 Y96.795 E15.04271
G1 X93.205 Y109.200 E15.42785
G1 X93.579 Y109.200 E15.43565
G1 X80.800 Y96.421 E15.83371
G1 X80.800 Y96.046 E15.84169
G1 X93.954 Y109.200 E16.25014
G1 X94.329 Y109.200 E16.25800
G1 X80.800 Y95.671 E16.67933
G1 X80.800 Y95.297 E16.68776
G1 X94.703 Y109.200 E17.11976
G1 X95.078 Y109.200 E17.12700
G1 X80.800 Y94.922 E17.57184
G1 X80.800 Y94.547 E17.57972
G1 X95.453 Y109.200 E18.03569
G1 X95.827 Y109.200 E18.04300
G1 X80.800 Y94.173 E18.51080
G1 X80.800 Y93.798 E18.51979
G1 X96.202 Y109.200 E18.99787
G1 X96.577 Y109.200 E19.00669
G1 X80.800 Y93.423 E19.49682
G1 X80.800 Y93.048 E19.50483
G1 X96.952 Y109.200 E20.00700
G1 X97.326 Y109.200 E20.01579
G1 X80.800 Y92.674 E20.52970
G1 X80.800 Y92.299 E20.53700
G1 X97.701 Y109.200 E21.06284
G1 X98.076 Y109.200 E21.07072
G1 X80.800 Y91.924 E21.60869
G1 X80.800 Y91.550 E21.61600
G1 X98.450 Y109.200 E22.16468
G1 X98.825 Y109.200 E22.17373
G1 X80.800 Y91.175 E22.73371
G1 X80.820 Y90.820 E22.74173
G1 X99.180 Y109.180 E23.31284
G1 X99.200 Y108.825 E23.31965
G1 X81.175 Y90.800 E23.88076
G1 X81.550 Y90.800 E23.88800
G1 X99.200 Y108.450 E24.43765
G1 X99.200 Y108.076 E24.44571
G1 X81.924 Y90.800 E24.98269
G1 X82.299 Y90.800 E24.99000
G1 X99.200 Y107.701 E25.51672
G1 X99.200 Y107.326 E25.52465
G1 X82.674 Y90.800 E26.03886
G1 X83.048 Y90.800 E26.04669
G1 X99.200 Y106.952 E26.54800
G1 X99.200 Y106.577 E26.55669
G1 X83.423 Y90.800 E27.04778
G1 X83.798 Y90.800 E27.05584
G1 X99.200 Y106.202 E27.53469
G1 X99.200 Y105.827 E27.54282
G1 X84.173 Y90.800 E28.00969
G1 X84.547 Y90.800 E28.01868
G1 X99.200 Y105.453 E28.47300
G1 X99.200 Y105.078 E28.48173
G1 X84.922 Y90.800 E28.92578
G1 X85.297 Y90.800 E28.93384
G1 X99.200 Y104.703 E29.36679
G1 X99.200 Y104.329 E29.37400
G1 X85.671 Y90.800 E29.79565
G1 X86.046 Y90.800 E29.80300
G1 X99.200 Y103.954 E30.21272
G1 X99.200 Y103.579 E30.22079
G1 X86.421 Y90.800 E30.61776
G1 X86.795 Y90.800 E30.62589
G1 X99.200 Y103.205 E31.01100
G1 X99.200 Y102.830 E31.01965
G1 X87.170 Y90.800 E31.39376
G1 X87.545 Y90.800 E31.40276
G1 X99.200 Y102.455 E31.76473
G1 X99.200 Y102.081 E31.77265
G1 X87.919 Y90.800 E32.12378
G1 X88.294 Y90.800 E32.13167
G1 X99.200 Y101.706 E32.47069
G1 X99.200 Y101.331 E32.47800
G1 X88.669 Y90.800 E32.80684
G1 X89.043 Y90.800 E32.81479
G1 X99.200 Y100.957 E33.13000
G1 X99.200 Y100.582 E33.13869
G1 X89.418 Y90.800 E33.44288
G1 X89.793 Y90.800 E33.45079
G1 X99.200 Y100.207 E33.74382
G1 X99.200 Y99.833 E33.75167
G1 X90.167 Y90.800 E34.03273
G1 X90.542 Y90.800 E34.04083
G1 X99.200 Y99.458 E34.30969
G1 X99.200 Y99.083 E34.31700
G1 X90.917 Y90.800 E34.57584
G1 X91.291 Y90.800 E34.58372
G1 X99.200 Y98.709 E34.82973
G1 X99.200 Y98.334 E34.83783
G1 X91.666 Y90.800 E35.07100
G1 X92.041 Y90.800 E35.08083
G1 X99.200 Y97.959 E35.30280
G1 X99.200 Y97.585 E35.31169
G1 X92.415 Y90.800 E35.52167
G1 X92.790 Y90.800 E35.53084
G1 X99.200 Y97.210 E35.72982
G1 X99.200 Y96.835 E35.73769
G1 X93.165 Y90.800 E35.92526
G1 X93.539 Y90.800 E35.93300
G1 X99.200 Y96.461 E36.10939
G1 X99.200 Y96.086 E36.11765
G1 X93.914 Y90.800 E36.28284
G1 X94.289 Y90.800 E36.29069
G1 X99.200 Y95.711 E36.44283
G1 X99.200 Y95.337 E36.45100
G1 X94.663 Y90.800 E36.59265
G1 X95.038 Y90.800 E36.60078
G1 X99.200 Y94.962 E36.72968
G1 X99.200 Y94.587 E36.73800
G1 X95.413 Y90.800 E36.85542
G1 X95.787 Y90.800 E36.86479
G1 X99.200 Y94.213 E36.97066
G1 X99.200 Y93.838 E36.97883
G1 X96.162 Y90.800 E37.07212
G1 X96.537 Y90.800 E37.08100
G1 X99.200 Y93.463 E37.16358
G1 X99.200 Y93.088 E37.17285
G1 X96.912 Y90.800 E37.24367
G1 X97.286 Y90.800 E37.25175
G1 X99.200 Y92.714 E37.31069
G1 X99.200 Y92.339 E37.31982
G1 X97.661 Y90.800 E37.36666
G1 X98.036 Y90.800 E37.37569
G1 X99.200 Y91.964 E37.41182
G1 X99.200 Y91.590 E37.41971
G1 X98.410 Y90.800 E37.44400
G1 X98.785 Y90.800 E37.45265
G1 X99.200 Y91.215 E37.46578
G1 X99.200 Y90.840 E37.47368
G1 X99.160 Y90.800 E37.47400
M106 S255
M140 S45 ; set bed temperature
G1 X99.200 Y90.840 F2715.128 E37.45255
G1 X99.200 Y91.215 F2715.128 E37.30473
G1 X98.785 Y90.800 F2715.128 E37.07176
G1 X98.410 Y90.800 F2715.128 E36.92376
G1 X99.200 Y91.590 F2715.128 E36.48173
G1 X99.200 Y91.964 F2715.128 E36.33365
G1 X98.036 Y90.800 F2715.128 E35.68177
G1 X97.661 Y90.800 F2715.128 E35.53383
G1 X99.200 Y92.339 F2715.128 E34.67212
G1 X99.200 Y92.714 F2715.128 E34.52300
G1 X98.531 Y92.046 F2715.128 E34.14948
G1 F1200.000 E33.97482
G92 E0
G1 Z0.400 F3600.000
G1 X84.652 Y108.750 F3600.000
G1 E3.50079 F1200.000
G1 X81.250 Y108.750 E3.64171 F1696.955
G1 X81.250 Y91.250 E4.36982
G1 X98.750 Y91.250 E5.09665
G1 X98.750 Y108.750 E5.82477
G1 X84.727 Y108.750 E6.40777 F1696.955
G1 X84.727 Y109.250 F3600.000
G1 X80.750 Y109.250 E6.57273 F1696.955
G1 X80.750 Y90.750 E7.34178
G1 X99.250 Y90.750 E8.11071 F1696.955
G1 X99.250 Y109.250 E8.87900
G1 X84.802 Y109.250 E9.48044
G1 X84.802 Y109.750 F3600.000
G1 X80.250 Y109.750 E9.66965 F1187.868
G1 X80.250 Y90.250 E10.48078
G1 X99.750 Y90.250 E11.29171
G1 X99.750 Y109.750 E12.10185
G1 X84.877 Y109.750 E12.72065 F1187.868
G1 X99.750 Y109.250 F3600.000
G1 X98.408 Y108.368 F3600.000
G1 X98.368 Y108.408 E12.72271 F1696.955
G1 X97.654 Y108.408 E12.75269
G1 X98.408 Y107.654 E12.79600
G1 X98.408 Y106.940 E12.82636
G1 X96.940 Y108.408 E12.91269
G1 X96.226 Y108.408 E12.94283
G1 X98.408 Y106.226 E13.07073
G1 X98.408 Y105.512 E13.10071
G1 X95.512 Y108.408 E13.27078
G1 X94.798 Y108.408 E13.30069
G1 X98.408 Y104.798 E13.51282
G1 X98.408 Y104.085 E13.54283
G1 X94.085 Y108.408 E13.79600
G1 X93.371 Y108.408 E13.82565
G1 X98.408 Y103.371 E14.12278
G1 X98.408 Y102.657 E14.15168
G1 X92.657 Y108.408 E14.48900
G1 X91.943 Y108.408 E14.51933
G1 X98.408 Y101.943 E14.89986
G1 X98.408 Y101.229 E14.92969
G1 X91.229 Y108.408 E15.35182
G1 X90.515 Y108.408 E15.38165
G1 X98.408 Y100.515 E15.84571
G1 X98.408 Y99.802 E15.87469
G1 X89.802 Y108.408 E16.38000
G1 X89.088 Y108.408 E16.41041
G1 X98.408 Y99.088 E16.95878
G1 X98.408 Y98.374 E16.98884
G1 X88.374 Y108.408 E17.57869
G1 X87.660 Y108.408 E17.60782
G1 X98.408 Y97.660 E18.23978
G1 X98.408 Y96.946 E18.26969
G1 X86.946 Y108.408 E18.94384
G1 X86.232 Y108.408 E18.97200
G1 X98.408 Y96.232 E19.68853
G1 X98.408 Y95.519 E19.71883
G1 X85.519 Y108.408 E20.47669
G1 X84.805 Y108.408 E20.50582
G1 X98.408 Y94.805 E21.30583
G1 X98.408 Y94.091 E21.33514
G1 X84.091 Y108.408 E22.17799
G1 X83.377 Y108.408 E22.20699
G1 X98.408 Y93.377 E23.09055
G1 X98.408 Y92.663 E23.12072
G1 X82.663 Y108.408 E24.04569
G1 X81.949 Y108.408 E24.07582
G1 X98.408 Y91.949 E25.04369
G1 X98.051 Y91.592 E25.06400
G1 X81.592 Y108.051 E26.03173
G1 X81.592 Y107.337 E26.06183
G1 X97.337 Y91.592 E26.98700
G1 X96.623 Y91.592 E27.01684
G1 X81.592 Y106.623 E27.90072
G1 X81.592 Y105.909 E27.93069
G1 X95.909 Y91.592 E28.77200
G1 X95.195 Y91.592 E28.80180
G1 X81.592 Y105.195 E29.60165
G1 X81.592 Y104.481 E29.63182
G1 X94.481 Y91.592 E30.38984
G1 X93.768 Y91.592 E30.41889
G1 X81.592 Y103.768 E31.13400
G1 X81.592 Y103.054 E31.16473
G1 X93.054 Y91.592 E31.83878
G1 X92.340 Y91.592 E31.86700
G1 X81.592 Y102.340 E32.49979
G1 X81.592 Y101.626 E32.52980
G1 X91.626 Y91.592 E33.11980
G1 X90.912 Y91.592 E33.14979
G1 X81.592 Y100.912 E33.69783
G1 X81.592 Y100.198 E33.72673
G1 X90.198 Y91.592 E34.23284
G1 X89.485 Y91.592 E34.26273
G1 X81.592 Y99.485 E34.72679
G1 X81.592 Y98.771 E34.75678
G1 X88.771 Y91.592 E35.17800
G1 X88.057 Y91.592 E35.20784
G1 X81.592 Y98.057 E35.58772
G1 X81.592 Y97.343 E35.61765
G1 X87.343 Y91.592 E35.95584
G1 X86.629 Y91.592 E35.98500
G1 X81.592 Y96.629 E36.28172
G1 X81.592 Y95.915 E36.31165
G1 X85.915 Y91.592 E36.56583
G1 X85.202 Y91.592 E36.59500
G1 X81.592 Y95.202 E36.80778
G1 X81.592 Y94.488 E36.83679
G1 X84.488 Y91.592 E37.00784
G1 X83.774 Y91.592 E37.03600
G1 X81.592 Y93.774 E37.16566
G1 X81.592 Y93.060 E37.19469
G1 X83.060 Y91.592 E37.28169
G1 X82.346 Y91.592 E37.31078
G1 X81.592 Y92.346 E37.35500
G1 X81.592 Y91.632 E37.38468
G1 X81.632 Y91.592 E37.38769
G1 X81.592 Y91.632 F2715.128 E37.36467
G1 X81.592 Y92.346 F2715.128 E37.08282
G1 X82.346 Y91.592 F2715.128 E36.66073
G1 X83.060 Y91.592 F2715.128 E36.37769
G1 X81.592 Y93.060 F2715.128 E35.55668
G1 X81.592 Y93.774 F2715.128 E35.27300
G1 X83.756 Y91.610 F2715.128 E34.06265
G1 F1200.000 E33.88783
G92 E0
G1 Z0.600 F3600.000
G1 X81.250 Y96.583 F3600.000
G1 E3.50000 F1200.000
G1 X81.250 Y91.250 E3.72165 F1696.955
G1 X98.750 Y91.250 E4.44983
G1 X98.750 Y108.750 E5.17683
G1 X81.250 Y108.750 E5.90469 F1696.955
G1 X81.250 Y96.658 E6.40777
G1 X80.750 Y96.658 F3600.000
G1 X80.750 Y90.750 E6.65266 F1696.955
G1 X99.250 Y90.750 E7.42176 F1696.955
G1 X99.250 Y109.250 E8.19173
G1 X80.750 Y109.250 E8.96083
G1 X80.750 Y96.733 E9.48084
G1 X80.250 Y96.733 F3600.000
G1 X80.250 Y90.250 E9.75073 F1187.868
G1 X99.750 Y90.250 E10.56067
G1 X99.750 Y109.750 E11.37100
G1 X80.250 Y109.750 E12.18266 F1187.868
G1 X80.250 Y96.808 E12.72089
G1 X100.000 Y109.317 F3600.000
G1 X98.368 Y91.592 F3600.000
G1 X98.408 Y91.632 E12.72200 F1696.955
G1 X98.408 Y92.346 E12.75273
G1 X97.654 Y91.592 E12.79684
G1 X96.940 Y91.592 E12.82683
G1 X98.408 Y93.060 E12.91200
G1 X98.408 Y93.774 E12.94279
G1 X96.226 Y91.592 E13.07080
G1 X95.512 Y91.592 E13.10080
G1 X98.408 Y94.488 E13.27079
G1 X98.408 Y95.202 E13.30078
G1 X94.798 Y91.592 E13.51269
G1 X94.085 Y91.592 E13.54278
G1 X98.408 Y95.915 E13.79684
G1 X98.408 Y96.629 E13.82583
G1 X93.371 Y91.592 E14.12200
G1 X92.657 Y91.592 E14.15173
G1 X98.408 Y97.343 E14.48978
G1 X98.408 Y98.057 E14.51900
G1 X91.943 Y91.592 E14.89980
G1 X91.229 Y91.592 E14.92979
G1 X98.408 Y98.771 E15.35187
G1 X98.408 Y99.485 E15.38169
G1 X90.515 Y91.592 E15.84582
G1 X89.802 Y91.592 E15.87431
G1 X98.408 Y100.198 E16.38000
G1 X98.408 Y100.912 E16.41055
G1 X89.088 Y91.592 E16.95872
G1 X88.374 Y91.592 E16.98869
G1 X98.408 Y101.626 E17.57882
G1 X98.408 Y102.340 E17.60769
G1 X87.660 Y91.592 E18.23900
G1 X86.946 Y91.592 E18.26973
G1 X98.408 Y103.054 E18.94383
G1 X98.408 Y103.768 E18.97200
G1 X86.232 Y91.592 E19.68884
G1 X85.519 Y91.592 E19.71872
G1 X98.408 Y104.481 E20.47669
G1 X98.408 Y105.195 E20.50500
G1 X84.805 Y91.592 E21.30579
G1 X84.091 Y91.592 E21.33580
G1 X98.408 Y105.909 E22.17780
G1 X98.408 Y106.623 E22.20679
G1 X83.377 Y91.592 E23.09083
G1 X82.663 Y91.592 E23.12073
G1 X98.408 Y107.337 E24.04584
G1 X98.408 Y108.051 E24.07573
G1 X81.949 Y91.592 E25.04379
G1 X81.592 Y91.949 E25.06478
G1 X98.051 Y108.408 E26.03100
G1 X97.337 Y108.408 E26.06184
G1 X81.592 Y92.663 E26.98772
G1 X81.592 Y93.377 E27.01665
G1 X96.623 Y108.408 E27.90084
G1 X95.909 Y108.408 E27.93000
G1 X81.592 Y94.091 E28.77272
G1 X81.592 Y94.805 E28.80165
G1 X95.195 Y108.408 E29.60183
G1 X94.481 Y108.408 E29.63100
G1 X81.592 Y95.519 E30.38978
G1 X81.592 Y96.232 E30.41879
G1 X93.768 Y108.408 E31.13484
G1 X93.054 Y108.408 E31.16400
G1 X81.592 Y96.946 E31.83872
G1 X81.592 Y97.660 E31.86785
G1 X92.340 Y108.408 E32.49982
G1 X91.626 Y108.408 E32.52976
G1 X81.592 Y98.374 E33.11969
G1 X81.592 Y99.088 E33.14968
G1 X90.912 Y108.408 E33.69700
G1 X90.198 Y108.408 E33.72666
G1 X81.592 Y99.802 E34.23265
G1 X81.592 Y100.515 E34.26267
G1 X89.485 Y108.408 E34.72675
G1 X88.771 Y108.408 E34.75600
G1 X81.592 Y101.229 E35.17884
G1 X81.592 Y101.943 E35.20772
G1 X88.057 Y108.408 E35.58769
G1 X87.343 Y108.408 E35.61700
G1 X81.592 Y102.657 E35.95566
G1 X81.592 Y103.371 E35.98582
G1 X86.629 Y108.408 E36.28165
G1 X85.915 Y108.408 E36.31178
G1 X81.592 Y104.085 E36.56568
G1 X81.592 Y104.798 E36.59573
G1 X85.202 Y108.408 E36.80778
G1 X84.488 Y108.408 E36.83671
G1 X81.592 Y105.512 E37.00700
G1 X81.592 Y106.226 E37.03682
G1 X83.774 Y108.408 E37.16569
G1 X83.060 Y108.408 E37.19480
